X:1
T:Treemonisha
T:Prelude to Act 3
T:TREEMONISHA.
T:No19. PRELUDE  TO  ACT  3.
T:Public Domain
T:Public Domain
T:Public Domain
T:Public Domain
T:Public Domain
T:Public Domain
C:Scott Joplin
Z:Public Domain
%%score { ( 1 3 ) | ( 2 4 ) }
L:1/8
Q:1/4=60
M:4/8
K:G
V:1 treble nm="Piano" snm="Pno."
V:3 treble 
V:2 bass 
V:4 bass 
V:1
!p!"^Andante affettuoso" ([F,CD] | (D/)D/d/B/) (^A/B/d/b/) | (g/d'/g'/e'/) d'([F,CD] | %3
 (D/)D/d/B/) (^A/B/d/b/) | (g/e'/g'/e'/ d')(3(c'/d'/c'/) | (b>_b) (a/d'/)(3(c'/d'/c'/) | %6
 (b>_b a)!mf! z |[I:staff +1] _E,/C/E,[I:staff -1] _E/c/E | (_e/g/a/c'/ d'/g/a/b/) | %9
 (a/b/a/g/-) (g/c/d/_e/) | dg/[dgd']/- [dgd']2 | (a/b/a/g/-) (g/c/d/_e/) | %12
[Q:1/4=50] (d[Q:1/4=40]^c!fermata!=c)[Q:1/4=60] z |[I:staff +1] _E,/C/E,[I:staff -1] _E/c/E | %14
 (_e/g/a/c'/) (d'/g/a/_b/) | (a/^g/a/d/-) (d/_b/a) | g!>!d/!>!d/ !>!d!>!d || %17
[K:Bb]!f! (e>f) (g/f)e/ | (d>f) ([dfd']/[Bdb])[FBd]/ | (c>d) (e/d)c/ | (B>d) ([Bdb]/[Bdg])[Bd]/ | %21
 (f>g) (_a/g)f/ | (e>g) ([ege']/[cec'])[ceg]/ | g>g [Bg]/[Af][G=e]/ | [Fd]d/d/ dd | %25
 (_e>f) (g/f)e/ | (d>f) ([dfd']/[Bdb])[FBd]/ | (c>d) (e/d)c/ | (B>d) ([Bdb]/[Bdg])[Bd]/ | %29
 (f>g) _a/gf/ | (e>g) ([ege']/[cec'])[ceg]/ | g>g (f/a)d'/ | %32
[Q:1/4=50] [dd'][Q:1/4=40][dd'] !fermata![gd'] ||[K:C]!mp![Q:1/4=60] c' | %34
 (a/_a/g/^f/) (^g/b/_b/=a/) | (^g/d/=g/f/) ec | (A/_A/G/^F/) (^G/B/_B/=A/) | %37
 (^G/D/=G/"_cresc."F/) E/G/^G/A/ |[Q:1/4=70]"^più mosso" _B>G (^C/E/G/^G/) | A>^F (=C/^D/=F/E/) | %40
!ff! A2- A(a/4^f/4^d/4c/4) | A2- A(a/4^f/4^d/4c/4) | ([B,=D=F^G]2 [^A,^CE=G]2 | %43
 [=A,=C^D^F]3) [CDFA] | [CEG]>G (g/e/c/G/) | [^Fc][=FBd] [Ec][C^D^FA] | ([B,=D=F^G]2 [^A,^CE=G]2 | %47
 [=A,=C^D^F]3) [A,CE] |[Q:1/4=60] (E/A/[Q:1/4=50]c/e/)[Q:1/4=40] (e/^a/[Q:1/4=30]^c'/[ee']/) | %49
[Q:1/4=30]!>(! [dd'][dd'] !fermata![gd'][Q:1/4=60]c'!>)! | %50
[Q:1/4=60]"^Tempo I"!mp! (a/_a/g/^f/) (^g/b/_b/=a/) | (^g/d/=g/f/ e)c | %52
 (A/_A/=G/^F/) (^G/B/_B/=A/) | (^G/D/=G/F/)"_cresc." (E/G/^G/A/) | %54
[Q:1/4=70]"^più mosso" _B>G (^C/E/G/^G/) | A>^F (=C/^D/=F/E/) |!ff! A2- A(a/4^f/4^d/4c/4) | %57
 A2- A(a/4^f/4^d/4c/4) | ([B,=D=F^G]2 [^A,^CE=G]2 | [=A,=C^D^F]3) [CDFA] | [CEG]>G (g/e/c/G/) | %61
 [^Fc][=FBd] [Ec][C^D^FA] | ([B,=D=F^G]2 [^A,^CE=G]2 | [=A,=C^D^F]3) [CDFA] | %64
[Q:1/4=60] ([^CE^F^A][DFB])[Q:1/4=50] ([Bd]/F/B/d/) | (d/e/^c/d/) .[DB] || %66
[K:G]!p![Q:1/4=60]"^Tempo I" ([F,CD] | (D/)D/d/B/) (^A/B/d/b/) | (g/d'/g'/e'/) d'([F,CD] | %69
 (D/)D/d/B/) (^A/B/d/b/) | (g/e'/g'/e'/ d')(3(c'/d'/c'/) | (b>_b) (a/d'/)(3(c'/d'/c'/) | %72
 (b>_b a)!mf! z |[I:staff +1] _E,/C/E,[I:staff -1] _E/c/E | (_e/g/a/c'/) (d'/g/a/b/) | %75
 (a/b/a/g/-) (g/c/d/_e/) | dg/[dgd']/- [dgd']2 | (a/b/a/g/-) (g/c/d/_e/) | %78
[Q:1/4=50] (d[Q:1/4=40]^c!fermata!=c)[Q:1/4=60] z |!<(![I:staff +1] _E,/C/E,[I:staff -1] _E/c/E | %80
 (_e/g/_b/!<)!_e'/)!>(! (g'/e'/b/g/)!>)! | (=b/g/d/B/) (d/B/G/B/) | G(A/^A/) [B,DGB]!>!g | %83
 (!>!b/g/[Q:1/4=55]d/B/)[Q:1/4=50] (d/B/[Q:1/4=45]G/B/) | !fermata![^CG]2 !fermata![=CFA]2 | %85
 [B,G]4- | [B,G] z z |] %87
V:2
 (([D,,D,] | [G,,D,]>))[K:treble](D G2) | (B^A B)[K:bass](([D,,D,] | [G,,D,]>))[K:treble](D G2) | %4
 (B^A B)[=Ad-] | d3 d- | d2- d[K:bass]"^R.H.""_L.H."D, | _E,,/C,/E,, _E,/C/E, | %8
[I:staff -1] (_E/G/A/c/) (Bc/d/) |[I:staff +1][K:treble] [C_EG]2 [CEG]2 | %10
 [B,G]2 ([B,G]/[CA]/[DB]/[B,G]/) | [C_EG]2 [CEG]2 | %12
"^rit." ([B,DG][_B,EG]!fermata![A,DF])[K:bass]"^a tempo""^R.H.""_L.H." D, | _E,,/C,/E,, _E,/C/E, | %14
[I:staff -1] (_E/G/A/c/) (Bc/d/) |[I:staff +1][K:treble] [D^Fc]3 [DFc] | %16
 [DG_B]!>!D/!>!D/[K:bass] !>!=B,2 ||[K:Bb] (C/B,/A,/G,/ F,/E,/D,/C,/) | %18
 (B,,/D,/F,/D,/) (B,,/D,/F,/B,/) | (A,/G,/^F,/E,/ D,/C,/B,,/A,,/) | %20
 (G,,/B,,/D,/B,,/) (G,,/B,,/D,/G,/) | (D/C/=B,/_A,/ G,/F,/E,/D,/) | (C,/E,/G,/E,/) (C,/E,/G,/C/) | %23
 ^C,2 [A,,A,]2 | [D,A,D]D/D/ =B,2 | (C/_B,/A,/G,/ F,/E,/D,/C,/) | (B,,/D,/F,/D,/) (B,,/D,/F,/B,/) | %27
 (A,/G,/^F,/E,/ D,/C,/B,,/A,,/) | (G,,/B,,/D,/B,,/) (G,,/B,,/D,/G,/) | %29
 (D/C/=B,/_A,/ G,/F,/E,/D,/) | (C,/E,/G,/E,/) (C,/E,/G,/C/) | (^C/D/=E/C/) (D<F) | %32
[K:treble]"^rit." [F_Ac]2 !fermata![FG=B] ||[K:C][K:treble] [=EGc] | [^D^FAc]2 [DF^GB]2 | %35
 [=D=F^GB][_DF=GB] [CEGc][K:bass][E,G,C] | [^D,^F,A,C]2 [D,F,^G,B,]2 | %37
 [=D,=F,^G,B,][_D,F,=G,B,] [C,E,G,C]/G,/^G,/A,/ | _B,>G, (^C,/E,/G,/^G,/) | %39
 A,>^F, (=C,/^D,/=F,/E,/) |"^agitato" (A,,/_A,,/G,,/_G,,/ F,,/E,,/^D,,/^F,,/) | %41
 (A,,/_A,,/G,,/_G,,/ F,,/E,,/^D,,/^F,,/) | (^G,,A,,)(^A,,B,,) | (C,A,,/^F,,/ ^D,,/C,,/D,,/F,,/) | %44
 (G,,C,) (E,/G,/C/E/) | [A,,A,][G,,G,][C,G,]^F,, | (^G,,A,,)(^A,,B,,) | %47
 C,(A,,/^F,,/ ^D,,/C,,/E,,/A,,/) | (E,/A,/"^rit.  poco  a  poco"C/E/)[K:treble] [G^A^c]2 | %49
 [GB][^FAc] !fermata![=FGB][EGc] | [^D^FAc]2 [DF^GB]2 | [=D=F^GB][_DF=GB] [CEGc][K:bass][E,G,C] | %52
 [^D,^F,A,C]2 [D,F,^G,B,]2 | [=D,=F,^G,B,][_D,F,=G,B,] ([C,E,G,C]/G,/^G,/A,/) | %54
 _B,>G, (^C,/E,/G,/^G,/) | A,>^F, (=C,/^D,/=F,/E,/) | %56
"^agitato" (A,,/_A,,/G,,/_G,,/ F,,/E,,/^D,,/^F,,/) | (A,,/_A,,/G,,/_G,,/ F,,/E,,/^D,,/^F,,/) | %58
 (^G,,A,,)(^A,,B,,) | (C,A,,/^F,,/ ^D,,/C,,/D,,/F,,/) | (G,,C,) (E,/G,/C/E/) | %61
 [A,,A,][G,,G,] [C,G,]^F,, | (^G,,A,,) (^A,,B,,) | C,(A,,/^F,,/ ^D,,/C,,/D,,/F,,/) | %64
"^poco rit." z/ [^F,,^F,]/z/[F,,F,]/ [F,,F,]2 | [^F,,^F,]2 .[B,,F,] ||[K:G] (([D,,D,] | %67
 [G,,D,]>))[K:treble](D G2) | (B^A B)[K:bass](([D,,D,] | [G,,D,]>))[K:treble](D G2) | %70
 (B^A B)[=Ad-] | d3 d- | d2- d[K:bass]"^R.H.""_L.H."D, | _E,,/C,/E,, _E,/C/E, | %74
[I:staff -1] (_E/G/A/c/) B(c/d/) |[I:staff +1][K:treble] [C_EG]2 [CEG]2 | %76
 [B,G]2 ([B,G]/[CA]/[DB]/[B,G]/) | [C_EG]2 [CEG]2 | %78
"^rit." [B,DG][_B,EG]!fermata![A,DF][K:bass]"^a tempo""^R.H.""_L.H." D, | _E,,/C,/E,, _E,/C/E, | %80
[I:staff -1] (_E/G/_B/c/) (_e/B/G/E/) |[I:staff +1] (D/=B,/G,/D,/) (B,/D/B,/D,/) | %82
 [E,,E,][D,,D,] [G,,D,]!>!_E | (!>!D/"^poco rit."B,/G,/D,/) (B,/D/B,/D,/) | %84
 !fermata![E,,E,]2 !fermata![D,,D,]2 | [G,,D,]4- | [G,,D,] z z |] %87
V:3
 x | [G,B,]3/2 z/ z2 | x4 | [G,B,]3/2 z/ z2 | x4 | x4 | x4 | x4 | x4 | x4 | x4 | x4 | x4 | x4 | %14
 x4 | x4 | x2 ^G2 ||[K:Bb] A2- [Ae]>[F-A] | [FB]2 x/ x x/ | ^F2- [Fc]>[D-F] | [DG]2 x/ x x/ | %21
 =B2- [Bf]>[G-B] | [Gc]2 x/ x x/ | [B=e]2 ^c2 | x2 ^G2 | A2- [Ae]>[F-A] | [FB]2 x/ x x/ | %27
 ^F2- [Fc]>[D-F] | [DG]2 x/ x x/ | =B2- [Bf]>[G-B] | [Gc]2 x/ x x/ | ([A-=e]2 [Ad]2) | x3 || %33
[K:C] x | x4 | x4 | x4 | x4 | x4 | x4 | [C^D^F]4 | [C^D^F]4 | x4 | x4 | x4 | x4 | x4 | x4 | x4 | %49
 x4 | x4 | x4 | x4 | x4 | x4 | x4 | [C^D^F]4 | [C^D^F]4 | x4 | x4 | x4 | x4 | x4 | x4 | x2 [D^F]2 | %65
 [E^A]2 x ||[K:G] x | [G,B,]3/2 z/ z2 | x4 | [G,B,]3/2 z/ z2 | x4 | x4 | x4 | x4 | x4 | x4 | x4 | %77
 x4 | x4 | x4 | x4 | x4 | [^CG][=CF] x2 | x4 | x4 | x4 | x3 |] %87
V:4
 x | x3/2[K:treble] x5/2 | x3[K:bass] x | x3/2[K:treble] x5/2 | x4 | (^G>=G F)A | %6
 (^G>=G F)[K:bass]D,, | x4 | x4 |[K:treble] x4 | D4 | x4 | x2 x[K:bass] D,, | x4 | x4 | %15
[K:treble] x4 | x2[K:bass] x2 ||[K:Bb] x4 | x4 | x4 | x4 | x4 | x4 | (^C/B,/G,/=E,/) x2 | x4 | x4 | %26
 x4 | x4 | x4 | x4 | x4 | x4 |[K:treble] x3 ||[K:C][K:treble] x | x4 | x3[K:bass] x | x4 | x4 | %38
 x4 | x4 | x4 | x4 | x4 | x4 | x4 | x4 | x4 | x4 | x2[K:treble] x2 | x4 | x4 | x3[K:bass] x | x4 | %53
 x4 | x4 | x4 | x4 | x4 | x4 | x4 | x4 | x4 | x4 | x4 | x4 | x3 ||[K:G] x | x3/2[K:treble] x5/2 | %68
 x3[K:bass] x | x3/2[K:treble] x5/2 | x4 | (^G>=G F)A | (^G>=G F)[K:bass]D,, | x4 | x4 | %75
[K:treble] x4 | D4 | x4 | x2 x[K:bass] D,, | x4 | x4 | x4 | x4 | x4 | x4 | x4 | x3 |] %87

